svg/600/rounded/nature-fill.svg

<svg xmlns="http://www.w3.org/2000/svg" width="48" height="48" viewBox="0 -960 960 960"><path d="M440.391-146.218V-309.26H360q-89.218 0-151.674-62.457-62.457-62.457-62.457-151.674 0-62.261 33-115.022t90.13-78.588q11.827-77.826 71.718-129.174Q400.609-897.523 480-897.523q79.391 0 139.283 51.348 59.891 51.348 71.718 129.174 57.13 25.827 90.413 78.588 33.282 52.761 33.282 115.022 0 89.217-62.739 151.674Q689.218-309.26 600-309.26h-80.391v163.042h193.782q16.707 0 28.158 11.502 11.452 11.502 11.452 28.283t-11.452 28.107q-11.451 11.327-28.158 11.327H256.609q-16.707 0-28.158-11.502-11.452-11.502-11.452-28.283t11.452-28.107q11.451-11.327 28.158-11.327h183.782Z"/></svg>

<svg xmlns="http://www.w3.org/2000/svg" width="48" height="48" viewBox="0 -960 960 960"><path d="M440.39-146.22v-163.04H360q-89.22 0-151.67-62.46-62.46-62.45-62.46-151.67 0-62.26 33-115.02T269-717q11.83-77.83 71.72-129.17 59.89-51.35 139.28-51.35t139.28 51.35Q679.17-794.83 691-717q57.13 25.83 90.41 78.59 33.29 52.76 33.29 115.02 0 89.22-62.74 151.67-62.74 62.46-151.96 62.46h-80.39v163.04h193.78q16.71 0 28.16 11.5Q753-123.21 753-106.43t-11.45 28.1Q730.1-67 713.39-67H256.61q-16.71 0-28.16-11.5T217-106.78q0-16.79 11.45-28.11 11.45-11.33 28.16-11.33h183.78Z"/></svg>
